packages/sources/assets/src/assets/flag-ax.svg

<svg width="28" height="20" viewBox="0 0 28 20" fill="none" xmlns="http://www.w3.org/2000/svg">
<rect width="28" height="20" rx="2" fill="white"/>
<mask id="mask0_503_4680" style="mask-type:alpha" maskUnits="userSpaceOnUse" x="0" y="0" width="28" height="20">
<rect width="28" height="20" rx="2" fill="white"/>
</mask>
<g mask="url(#mask0_503_4680)">
<rect width="28" height="20" fill="#157CBB"/>
<path fill-rule="evenodd" clip-rule="evenodd" d="M0 12H8V20H12V12H28V8H12V0H8V8H0V12Z" fill="#FFD34D"/>
<path fill-rule="evenodd" clip-rule="evenodd" d="M0 10.6667H9.33333V20H10.6667V10.6667H28V9.33333H10.6667V0H9.33333V9.33333H0V10.6667Z" fill="#EB363A"/>
</g>
</svg>

<svg width="28" height="20" fill="none" xmlns="http://www.w3.org/2000/svg"><rect width="28" height="20" rx="2" fill="#fff"/><mask id="a" style="mask-type:alpha" maskUnits="userSpaceOnUse" x="0" y="0" width="28" height="20"><rect width="28" height="20" rx="2" fill="#fff"/></mask><g mask="url(#a)"><path fill="#157CBB" d="M0 0h28v20H0z"/><path fill-rule="evenodd" clip-rule="evenodd" d="M0 12h8v8h4v-8h16V8H12V0H8v8H0v4Z" fill="#FFD34D"/><path fill-rule="evenodd" clip-rule="evenodd" d="M0 10.667h9.333V20h1.334v-9.333H28V9.333H10.667V0H9.333v9.333H0v1.334Z" fill="#EB363A"/></g></svg>
